!!!OTL: F&auml;hnderich (2-44) S. 140
!!!id: P0917
**kern
*clefG2
*k[]
*G:
{8d
=1
8.g
16g
8g
16g
16g
=2
4g
8.a
16dd
=3
4b
8a
8g
=4
4a}
=5
{8.dd
16cc
=6
4b
8b
8b
=7
8.b
16dd
8cc
8b
=8
8.a
16dd
8dd
8dd
=9
4dd}
=10
{8.dd
16cc
=11
8.b
16b
8b
8b
=12
8.b
16dd
8cc
8b
=13
8a
8dd
8dd
8dd
=14
4dd}
8r
=15
{8g
=16
4a
4a
=17
8.dd
16cc
8b
8a
=18
4b
4a
=19
4g}
8r
==
*-
!!!minrhy: 16
!!!meters: 2/4 ]  ZZ[4
!!!cut: F&auml;hnderich (2-44) S. 140
!!!reg: Lothringen
!!!trd: PINCK, Louis: Verklingende Weisen, Bd 2, Metz 1928
!!!rhy1: X_  X_.XX_XX  X__X_.X  X__X_X_  X__
!!!rhy2: X_.X  X__X_X_  X_.XX_X_  X_.XX_X_  X__
!!!key: P0917  16  G 2/4 ]  ZZ[4
!!!mod: PENTATONIK DUR ?]  AMBITUS[8
!!!kad: 2551
!!!akz: 1132_3325_3325_2531_
!!!fot: 'a__b__bv_c__
!!!for: 'a__b__c__d__
!!!fok: '^a_V__V__^__
!! PHRAS[AUFTAKTIG]
!!!fkt: Beischlaf, verlorene Ehre
!! LOTH VKL
!! PR[19] 2K[10] 2G[13] 3K[6] 3G[2] 4A[4] 4Ü[0] 5A[0] 6K[0] 6G[0]
!! 7K[0] 7G[0] 8A[2] MEHR[0] SI[37] ABS[52] SR[23] SP[13]
!! ST[14] 2k[17] 2g[21] 3k[0] 3g[2] 4d[0] 4ü[0] 5d[4] 6k[0] 6g[0]
!! 7k[0] 7g[0] 8d[0] mehr[0] si[44] dm[-7] sr[38] sp[6]
!! 1F[4] 2F[89] 3F[8] 4F[0] LF[0] 2P[0] 3P[0] 4P[0] TRI[0] DF[3] AB[53]
!! TF[0] U3K[0] U3[0] U4[0] U4Ü[0] U5[6] U6K[0] U6[0] U7K[0] U7[11]
!! N1[25] N2K[0] N2[17] N3K[0] N3[15] N4[11] N4Ü[0] N5[13] N6K[0] N6[2]
!!!n7k: 0] N7[0] O1[0] O2K[0] O2[0] O3K[0] O3[0] HÖ[0
!!!RNB: symbol: &auml;      = a umlaut  (UTF-8: Å„)
